src/pos-icons/arrow-right-thick.svg

<svg height="24" viewBox="0 0 24 24" width="24" xmlns="http://www.w3.org/2000/svg"><path d="m4 10v4h9l-3.5 3.5 2.42 2.42 7.92-7.92-7.92-7.92-2.42 2.42 3.5 3.5z"/></svg>

<?xml version="1.0" encoding="UTF-8"?><!DOCTYPE svg PUBLIC "-//W3C//DTD SVG 1.1//EN" "http://www.w3.org/Graphics/SVG/1.1/DTD/svg11.dtd"><svg xmlns="http://www.w3.org/2000/svg" xmlns:xlink="http://www.w3.org/1999/xlink" version="1.1" id="mdi-arrow-right-thick" width="24" height="24" viewBox="0 0 24 24"><path d="M4,10V14H13L9.5,17.5L11.92,19.92L19.84,12L11.92,4.08L9.5,6.5L13,10H4Z" /></svg>
